X:1
T:Title
L:1/8
M:4/4
K:Ab
V:1 treble nm="Grand Piano"
V:1
 z4 z[Q:1/4=100] C2 c | B3 A- A G2 F | E=D E2- E E2 B | A2 G2- G F2 E | DC D2- D C2 C | %5
 =E3 C- C G2 A | AG F2- F F2 G | A2 F2- F A2 B |[M:5/8] c-c- c3 |[M:3/8] d2 c | %10
[M:4/4] c2 c2- c d2 c | c2 c2- c e2 d | d2 d2- d e2 d | d2 d2- d d2 c | cB Bc/B/ A A2 A | %15
 BA G2- G G2 A | B3 c- c d2 e | d2 c4 z2 |] %18

